X: 0
T: Babe Jesu, Hear Our Ditty
Z: Le teint de son visage, 1703
Z: Copyright © 2005 by Douglas D. Anderson
Z: Released to the Public Domain
L: 1/4
M: 4/4
V: P1 name="Soprano"
%%MIDI program 1 19
V: P2 name="Alto"
%%MIDI program 2 60
V: P3 name="Tenor"
%%MIDI program 3 57
V: P4 name="Bass"
%%MIDI program 4 58
K: F
[V: P1]  A/B/ | c c d d | A2 A (A/B/) | c c d d | A3 A | A3/ G/ A B | G2 G (A/B/) | c B A3/ G/ | ^F3/ E/ F G | A3 A | A3/ G/ A B | G2 G (A/B/) | c B A3/ G/ | ^F E F3/ F/ | G3|]
w: Ba- be Je- su, hear our dit- ty, And_ think there- of no scorn: We pray thee of thy pi- ty, On_ this Thy na- tal morn. We flee to Thee, Who wast, in Beth- lem ci- ty, Of_ Ma- ry Maid- en born; For such as we.
[V: P2]  F | E F F (A/G/) | E2 E F | E F F (A/G/) | E3 F | F3/ E/ F F | _E2 D F | G F F3/ D/ | D3/ E/ D D | E3 F | F3/ E/ F F | E2 D F | G F _E E | D E D3/ D/ | =B,3|]
[V: P3]  D | C A, A, (A,/=B,/) | ^C2 C D | A, A, A, (A,/=B,/) | ^C3 D | C3/ C/ C D | C2 B, D | _E D C3/ B,/ | A,3/ A,/ A, =B, | ^C3 D | C3/ C/ C D | C2 B, D | _E D C3/ B,/ | A, A, A,3/ D,/ | D,3|]
[V: P4]  D, | A, F, D, (F,/G,/) | A,2 A, D, | A, F, D, (F,/G,/) | A,3 D, | F,3/ C,/ F, B,, | C,2 G, D, | C, D, F,3/ G,/ | D,3/ ^C,/ D, =B,, | A,,3 D, | F,3/ C,/ F, B,, | C,2 G, D, | C, C, C, C, | D, ^C, D,3/ D,/ | G,,3|]

